!!!OTL: ES LEUCHTEN DREI STERNE AM HIMMEL
!!!ARE: Europa, Mitteleuropa, Deutschland
!!!SCT: E0048
!!!YEM: Copyright 1995, estate of Helmut Schaffrath.
**kern
*ICvox
*Ivox
*M6/8
*k[b-]
*F:
{8c
=1
8.f
16e
8f
8.g
16f
8g
=2
8.a
16b-
16a
16g
4f}
{16a
16b-
=3
8.cc
16dd
8cc
8f
8a
8g
=4
4.a
4r}
{16e
16f
=5
4g
8a
8.a
16b-
8cc
=6
4.b-
4g
8r}
=7
{4.a
8g
8f
8g
=8
8.a
16b-
16a
16g
8f
8r}
==
!!!AGN: erzaehlendes Volks - Lied, Sage, Mord, Ballade ?
!!!ONB: ESAC (Essen Associative Code) Database: ERK1
!!!AMT: compound duple
!!!AIN: vox
!!!EED: Helmut Schaffrath
!!!EEV: 1.0
*-
